!!!OTL-incipit: ES FUHR EIN FUHRKNECHT UEBERN RHEIN
!!!ARE: Europa, Mitteleuropa, Deutschland, Rheinland
!!!SCT: Z0019
!!!TXL: @@DE
!!!YEM: Copyright 1995, estate of Helmut Schaffrath.
**kern	**text
*ICvox	*
*M2/4	*
*k[b-e-]	*
*g:	*
!LO:TX:a:t=Rheinländiſch.	!
{8d	Es
=1	=1
4g	fuhr
4b-/	ein
=2	=2
4a	Fuhr-
4dd	-knecht
=3	=3
8cc	ü-
8b-/	-bern
8a}	Rhein,
{8d	es
=4	=4
4g	fuhr
4b-/	ein
=5	=5
4a	Fuhrknecht
4dd	.
=6	=6
8cc	ü-
8b-/	-bern
8a}	Rhein,
{8cc	der
=7	=7
8cc	kehrt
8cc	beim
8cc	jungen
8dd	.
=8	=8
8b-/	Pfalʒgraf
8a	.
8g}	ein,
{8d	der
=9	=9
4g	kehrt
4b-/	beim
=10	=10
4a	jungen
4dd	.
=11	=11
8b-/	Pfalʒgraf
8a	.
8g}	ein.
==	==
!!!AGN: Sagen - Lied, Romanze; Staende - Lied, Fuhrmann
!!!ONB: ESAC (Essen Associative Code) Database: ZUCCAL
!!!AMT: simple duple
!!!AIN: vox
!!!EED: Helmut Schaffrath
!!!EEV: 1.0
!!!GTL: I. Ernste Romanzen und Sagen.
!!!URL-scan: https://www.digitale-sammlungen.de/de/view/bsb11160571?page=44
!!!ENC: Anna Maria Matuszewska
!!!EEV: 2025/01/23
*-	*-
